X:1
T:Title
%%score 1 { 2 | ( 3 4 ) }
L:1/8
M:3/4
K:Ab
V:1 treble nm="Akkordion"
V:2 treble nm="Grand Piano"
V:3 bass 
V:4 bass 
V:1
 z2 z2[Q:1/4=86] E>=D | E3 E FA | d c3 c>c | c3 d B>c | A4 E>=D | E3 E FA | d c3 e>e | B3 G A>F | %8
 E4 E>E | d3 d cc | c B3 B>B | e3 e dd | c4 c>c | c3 c cc | d F3 A>B | c3 A B>G |[M:2/4] A4 | %17
[M:1/4] z2 |[M:3/4] z6 | z6 | z6 |[M:2/4] z4 |[M:1/4] z2 |[M:3/4] z6 | z6 |[M:15/16] z15/2 | %26
[M:3/4] z6 |] %27
V:2
 z2 z2 E>=D | [A,CE]2 [CE]2 [DF]2 | [DF]2 [CE]2 [CE]2 | [A,CE]2 [CE]2 [EG]2 | [CEA]2 [EA]2 E>=D | %5
 [A,CE]2 [CE]2 [DF]2 | [A,DF]2 [CE]2[K:bass] [_G,CE]2 | [G,B,E]2 [B,E]2 [B,=D]2 | %8
 [G,B,E]2[K:treble] E2 E2 | [DEGB]2 B2 A2 | G2 G2 [EGB]2 | [EAe]2 [Ae]2 [EGd]2 | %12
 [EAc]2 [Ac]2 [C=EGc]2 | [CFAc]2 [CFA]2 [C_GA]2 | [DFA]2 [DFA]2 [D=EA]2 | [CEA]2 A2 G2 | %16
[M:2/4] [CEA]4 |[M:1/4] e>e |[M:3/4] e3 [EGB] [EAe]>[EGd] | [EBd] [EAc]3 c>c | c3 [=EG] [Ec]>[GB] | %21
[M:2/4] A4 |[M:1/4] e>e |[M:3/4] e3 c BA | [Fd] [Fd]3 [FA]>[=EB] | %25
[M:15/16] .cA/-A/[Ge]- [Ge]3- [Ge]/[DEG] |[M:3/4] [CEA]6 |] %27
V:3
 z2 z2 C>_C | z2 A,2 A,2 | A,2 A,2 A,2 | z2 A,2 D2 | z2 C2 C>_C | z2 A,2 A,2 | z2 A,2 =A,,2 | %7
 z2 G,2 A,2 | z2 [G,B,]2 [G,B,]2 | z2 [DEG]2 [CE]2 | [B,E]2 [B,E]2 D,2 | z2 E2 B,,2 | z2 E2 C,2 | %13
 [F,,F,]4 [E,,E,]2 | [D,,D,]4 [D,,D,]2 | z2 [CE]2 [DE]2 |[M:2/4] [A,,,A,,]4 |[M:1/4] [E,E]>[E,E] | %18
[M:3/4] [E,E]3 D, C,>B,, | A,, A,,3 [C,C]>[C,C] | [C,C]3 [C,C] [C,C]>[C,C] |[M:2/4] [F,CF]4 | %22
[M:1/4] [E,E]>[E,E] |[M:3/4] [E,E]3 C B,A, | [D,A,] [D,A,]3 [D,A,]>[D,A,] | %25
[M:15/16] .[E,A,E][E,C]/-[E,C]/[E,B,]- [E,B,]3- [E,B,]/E, |[M:3/4] A,,6 |] %27
V:4
 x6 | A,,6- | A,,6 | E,6 | A,,4 z2 | A,,6 | A,,4 z2 | B,,6 | [E,,E,]6 | [E,,E,]6- | [E,,E,]4 z2 | %11
 C,4 z2 | A,,4 z2 | x6 | x6 | [E,,E,]6 |[M:2/4] x4 |[M:1/4] x2 |[M:3/4] x6 | x6 | x6 |[M:2/4] x4 | %22
[M:1/4] x2 |[M:3/4] x6 | x6 |[M:15/16] x15/2 |[M:3/4] x6 |] %27

